X: 1
T: Paddy The Ahhhhh
M: 4/4
L: 1/8
R: reel
K: Gmaj
gBB/B/B dBAB|GDD/D/D DGBG|AFF/F/F AFdF|fgfe dcBA|
gBB/B/B dBAB|GDD/D/D DGBG|AFF/F/F EDEF|GBA/G/F G4:|
BGG/G/G BGcG|BGG/G/G DGBG|AFF/F/F AFdF|fgfe dcBA|
BGG/G/G BGcG|BGG/G/G DGBG|AFF/F/F EDEF|GBA/G/F G4:|
BGGB GGcG|BGGB GGcG|BGGB GGcG|AGGA GGcG|
BGGB GGcG|BGGB GGcG|AFF/F/F EDEF|GBA/G/F G4:|
